svg/emoji_u1f922.svg

<svg width="128" height="128" viewBox="0 0 128 128" fill="none" xmlns="http://www.w3.org/2000/svg">
<path d="M63.6001 118.8C35.7001 118.8 5.6001 101.3 5.6001 62.9C5.6001 24.5 35.7001 7 63.6001 7C79.1001 7 93.4001 12.1 104 21.4C115.5 31.6 121.6 46 121.6 62.9C121.6 79.8 115.5 94.1 104 104.3C93.4001 113.6 79.0001 118.8 63.6001 118.8Z" fill="url(#paint0_radial_1793_2)" style=""/>
<path d="M111.49 29.6699C116.82 38.2699 119.6 48.5099 119.6 59.8999C119.6 76.7999 113.5 91.0999 102 101.3C91.4002 110.6 77.0002 115.8 61.6002 115.8C43.5402 115.8 24.6002 108.45 13.4202 92.8599C24.1802 110.52 44.4202 118.8 63.6002 118.8C79.0002 118.8 93.4002 113.6 104 104.3C115.5 94.0999 121.6 79.7999 121.6 62.8999C121.6 50.1599 118.13 38.8399 111.49 29.6699Z" fill="#789E46" style="fill:#789E46;fill:color(display-p3 0.4706 0.6196 0.2745);fill-opacity:1;"/>
<g opacity="0.65">
<path d="M92.1299 107.99C99.293 107.99 105.1 102.667 105.1 96.1C105.1 89.5333 99.293 84.21 92.1299 84.21C84.9668 84.21 79.1599 89.5333 79.1599 96.1C79.1599 102.667 84.9668 107.99 92.1299 107.99Z" fill="url(#paint1_radial_1793_2)" style=""/>
</g>
<g opacity="0.65">
<path d="M36.98 109.99C44.1431 109.99 49.95 104.667 49.95 98.1C49.95 91.5333 44.1431 86.21 36.98 86.21C29.8169 86.21 24.01 91.5333 24.01 98.1C24.01 104.667 29.8169 109.99 36.98 109.99Z" fill="url(#paint2_radial_1793_2)" style=""/>
</g>
<path d="M42.73 87.1401C45.38 88.4101 48.42 92.0001 49.53 94.7201C50.39 96.8801 50.62 99.2501 50.17 101.54" stroke="#23350B" style="stroke:#23350B;stroke:color(display-p3 0.1354 0.2078 0.0431);stroke-opacity:1;" stroke-width="5.26" stroke-linecap="round" stroke-linejoin="round"/>
<path d="M84.5 86.4102C81.85 87.6702 78.79 91.2402 77.68 93.9602C77.12 95.3202 76.82 96.7802 76.79 98.2502" stroke="#23350B" style="stroke:#23350B;stroke:color(display-p3 0.1354 0.2078 0.0431);stroke-opacity:1;" stroke-width="5.26" stroke-linecap="round" stroke-linejoin="round"/>
<path d="M49.45 94.1798C49.45 94.1798 51.1699 89.3698 63.6399 89.1798C74.95 88.9998 77.6399 92.6298 77.6399 92.6298" stroke="#23350B" style="stroke:#23350B;stroke:color(display-p3 0.1354 0.2078 0.0431);stroke-opacity:1;" stroke-width="5.26" stroke-linecap="round" stroke-linejoin="round"/>
<path d="M27.4001 51.7998C25.2001 52.1998 25.1001 55.3998 27.5001 55.4998C32.8001 55.5698 37.9201 53.5998 41.8001 49.9998C43.2801 48.7198 44.5301 47.1998 45.5001 45.4998C46.0801 44.6698 45.8801 43.5298 45.0501 42.9498C44.2201 42.3698 43.0801 42.5698 42.5001 43.3998L42.4001 43.4998C38.4801 47.8798 33.1901 50.8098 27.4001 51.7998Z" fill="#34420D" style="fill:#34420D;fill:color(display-p3 0.2048 0.2588 0.0510);fill-opacity:1;"/>
<path d="M84.5001 36.3998C83.9201 35.5698 82.7801 35.3698 81.9501 35.9498C81.1201 36.5298 80.9201 37.6698 81.5001 38.4998C82.4701 40.1998 83.7201 41.7198 85.2001 42.9998C89.1001 46.5698 94.2101 48.5398 99.5001 48.4998C102 48.3998 101.8 45.1998 99.6001 44.7998C93.7401 43.8398 88.4101 40.8698 84.5001 36.3998Z" fill="#34420D" style="fill:#34420D;fill:color(display-p3 0.2048 0.2588 0.0510);fill-opacity:1;"/>
<path d="M37.75 62.6499C36.26 63.3699 35.46 65.0299 35.84 66.6499C36.84 70.9599 40.2 73.4599 43.79 73.4599C48.13 73.4599 52.07 69.7899 52.07 63.7099C52.08 62.6199 51.94 61.5399 51.66 60.4899C51.12 58.6399 49.19 57.5799 47.35 58.1199C47.15 58.1799 46.97 58.2499 46.78 58.3399L37.75 62.6499Z" fill="#37420D" style="fill:#37420D;fill:color(display-p3 0.2173 0.2588 0.0510);fill-opacity:1;"/>
<path d="M47.3801 61.78C46.8301 60.95 45.4401 60.78 43.9701 61.78C42.5001 62.78 42.1201 64.1 42.6701 64.93C43.2301 65.77 44.6101 65.93 46.0801 64.93C47.5501 63.93 47.9301 62.62 47.3801 61.78Z" fill="#898524" style="fill:#898524;fill:color(display-p3 0.5373 0.5214 0.1412);fill-opacity:1;"/>
<path d="M89.8402 62.6499C91.3402 63.3699 92.1402 65.0299 91.7602 66.6499C90.7102 70.9599 87.3902 73.4599 83.7602 73.4599C79.4202 73.4599 75.4702 69.7899 75.4702 63.7099C75.4702 62.6199 75.6002 61.5399 75.8802 60.4899C76.4202 58.6399 78.3602 57.5799 80.2102 58.1199C80.4002 58.1799 80.5902 58.2499 80.7702 58.3399L89.8402 62.6499Z" fill="#37420D" style="fill:#37420D;fill:color(display-p3 0.2173 0.2588 0.0510);fill-opacity:1;"/>
<path d="M80.2102 61.78C80.7702 60.95 82.2102 60.78 83.6302 61.78C85.0502 62.78 85.4802 64.1 84.9202 64.93C84.3702 65.77 82.9802 65.93 81.5102 64.93C80.0402 63.93 79.6602 62.62 80.2102 61.78Z" fill="#898524" style="fill:#898524;fill:color(display-p3 0.5373 0.5214 0.1412);fill-opacity:1;"/>
<defs>
<radialGradient id="paint0_radial_1793_2" cx="0" cy="0" r="1" gradientUnits="userSpaceOnUse" gradientTransform="translate(63.6001 62.8999) scale(56.9597 56.9597)">
<stop stop-color="#FDE030" style="stop-color:#FDE030;stop-color:color(display-p3 0.9922 0.8784 0.1882);stop-opacity:1;"/>
<stop offset="0.19" stop-color="#F1DE37" style="stop-color:#F1DE37;stop-color:color(display-p3 0.9451 0.8706 0.2157);stop-opacity:1;"/>
<stop offset="0.53" stop-color="#D1D748" style="stop-color:#D1D748;stop-color:color(display-p3 0.8196 0.8431 0.2824);stop-opacity:1;"/>
<stop offset="0.99" stop-color="#9DCC64" style="stop-color:#9DCC64;stop-color:color(display-p3 0.6157 0.8000 0.3922);stop-opacity:1;"/>
<stop offset="1" stop-color="#9CCC65" style="stop-color:#9CCC65;stop-color:color(display-p3 0.6118 0.8000 0.3961);stop-opacity:1;"/>
</radialGradient>
<radialGradient id="paint1_radial_1793_2" cx="0" cy="0" r="1" gradientUnits="userSpaceOnUse" gradientTransform="translate(92.1027 96.2768) scale(14.0976 12.3552)">
<stop stop-color="#ED7770" style="stop-color:#ED7770;stop-color:color(display-p3 0.9294 0.4667 0.4392);stop-opacity:1;"/>
<stop offset="0.08" stop-color="#ED7770" stop-opacity="0.97" style="stop-color:#ED7770;stop-color:color(display-p3 0.9294 0.4667 0.4392);stop-opacity:0.97;"/>
<stop offset="0.21" stop-color="#ED7770" stop-opacity="0.88" style="stop-color:#ED7770;stop-color:color(display-p3 0.9294 0.4667 0.4392);stop-opacity:0.88;"/>
<stop offset="0.35" stop-color="#ED7770" stop-opacity="0.74" style="stop-color:#ED7770;stop-color:color(display-p3 0.9294 0.4667 0.4392);stop-opacity:0.74;"/>
<stop offset="0.52" stop-color="#ED7770" stop-opacity="0.55" style="stop-color:#ED7770;stop-color:color(display-p3 0.9294 0.4667 0.4392);stop-opacity:0.55;"/>
<stop offset="0.71" stop-color="#ED7770" stop-opacity="0.29" style="stop-color:#ED7770;stop-color:color(display-p3 0.9294 0.4667 0.4392);stop-opacity:0.29;"/>
<stop offset="0.9" stop-color="#ED7770" stop-opacity="0" style="stop-color:none;stop-opacity:0;"/>
</radialGradient>
<radialGradient id="paint2_radial_1793_2" cx="0" cy="0" r="1" gradientUnits="userSpaceOnUse" gradientTransform="translate(36.98 98.2774) scale(14.0911 12.3495)">
<stop stop-color="#ED7770" style="stop-color:#ED7770;stop-color:color(display-p3 0.9294 0.4667 0.4392);stop-opacity:1;"/>
<stop offset="0.08" stop-color="#ED7770" stop-opacity="0.97" style="stop-color:#ED7770;stop-color:color(display-p3 0.9294 0.4667 0.4392);stop-opacity:0.97;"/>
<stop offset="0.21" stop-color="#ED7770" stop-opacity="0.88" style="stop-color:#ED7770;stop-color:color(display-p3 0.9294 0.4667 0.4392);stop-opacity:0.88;"/>
<stop offset="0.35" stop-color="#ED7770" stop-opacity="0.74" style="stop-color:#ED7770;stop-color:color(display-p3 0.9294 0.4667 0.4392);stop-opacity:0.74;"/>
<stop offset="0.52" stop-color="#ED7770" stop-opacity="0.55" style="stop-color:#ED7770;stop-color:color(display-p3 0.9294 0.4667 0.4392);stop-opacity:0.55;"/>
<stop offset="0.71" stop-color="#ED7770" stop-opacity="0.29" style="stop-color:#ED7770;stop-color:color(display-p3 0.9294 0.4667 0.4392);stop-opacity:0.29;"/>
<stop offset="0.9" stop-color="#ED7770" stop-opacity="0" style="stop-color:none;stop-opacity:0;"/>
</radialGradient>
</defs>
</svg>

<?xml version="1.0" encoding="utf-8"?>
<!-- Generator: Adobe Illustrator 24.1.2, SVG Export Plug-In . SVG Version: 6.00 Build 0)  -->
<svg version="1.1" id="Layer_1" xmlns="http://www.w3.org/2000/svg" xmlns:xlink="http://www.w3.org/1999/xlink" x="0px" y="0px"
	 viewBox="0 0 128 128" style="enable-background:new 0 0 128 128;" xml:space="preserve">
<g id="facial_expressions">
	<g id="nauseated-face">
		
			<radialGradient id="SVGID_1_" cx="63.6" cy="2288.8999" r="56.9597" gradientTransform="matrix(1 0 0 1 0 -2226)" gradientUnits="userSpaceOnUse">
			<stop  offset="0" style="stop-color:#FDE030"/>
			<stop  offset="0.19" style="stop-color:#F1DE37"/>
			<stop  offset="0.53" style="stop-color:#D1D748"/>
			<stop  offset="0.99" style="stop-color:#9DCC64"/>
			<stop  offset="1" style="stop-color:#9CCC65"/>
		</radialGradient>
		<path style="fill:url(#SVGID_1_);" d="M63.6,118.8c-27.9,0-58-17.5-58-55.9S35.7,7,63.6,7c15.5,0,29.8,5.1,40.4,14.4
			c11.5,10.2,17.6,24.6,17.6,41.5s-6.1,31.2-17.6,41.4C93.4,113.6,79,118.8,63.6,118.8z"/>
	</g>
	<path style="fill:#789E46;" d="M111.49,29.67c5.33,8.6,8.11,18.84,8.11,30.23c0,16.9-6.1,31.2-17.6,41.4
		c-10.6,9.3-25,14.5-40.4,14.5c-18.06,0-37-7.35-48.18-22.94c10.76,17.66,31,25.94,50.18,25.94c15.4,0,29.8-5.2,40.4-14.5
		c11.5-10.2,17.6-24.5,17.6-41.4C121.6,50.16,118.13,38.84,111.49,29.67z"/>
	<g id="nauseated-face-2">
		<g id="blush" style="opacity:0.65;">
			
				<radialGradient id="SVGID_2_" cx="144.3065" cy="-71.919" r="15.84" gradientTransform="matrix(0.89 0 0 -0.78 -36.33 40.18)" gradientUnits="userSpaceOnUse">
				<stop  offset="0" style="stop-color:#ED7770"/>
				<stop  offset="0.08" style="stop-color:#ED7770;stop-opacity:0.97"/>
				<stop  offset="0.21" style="stop-color:#ED7770;stop-opacity:0.88"/>
				<stop  offset="0.35" style="stop-color:#ED7770;stop-opacity:0.74"/>
				<stop  offset="0.52" style="stop-color:#ED7770;stop-opacity:0.55"/>
				<stop  offset="0.71" style="stop-color:#ED7770;stop-opacity:0.29"/>
				<stop  offset="0.9" style="stop-color:#ED7770;stop-opacity:0"/>
			</radialGradient>
			<ellipse style="fill:url(#SVGID_2_);" cx="92.13" cy="96.1" rx="12.97" ry="11.89"/>
		</g>
		<g id="blush-2" style="opacity:0.65;">
			
				<radialGradient id="SVGID_3_" cx="82.3708" cy="-73.689" r="15.8327" gradientTransform="matrix(0.89 0 0 -0.78 -36.33 40.8)" gradientUnits="userSpaceOnUse">
				<stop  offset="0" style="stop-color:#ED7770"/>
				<stop  offset="0.08" style="stop-color:#ED7770;stop-opacity:0.97"/>
				<stop  offset="0.21" style="stop-color:#ED7770;stop-opacity:0.88"/>
				<stop  offset="0.35" style="stop-color:#ED7770;stop-opacity:0.74"/>
				<stop  offset="0.52" style="stop-color:#ED7770;stop-opacity:0.55"/>
				<stop  offset="0.71" style="stop-color:#ED7770;stop-opacity:0.29"/>
				<stop  offset="0.9" style="stop-color:#ED7770;stop-opacity:0"/>
			</radialGradient>
			<ellipse style="fill:url(#SVGID_3_);" cx="36.98" cy="98.1" rx="12.97" ry="11.89"/>
		</g>
		<path style="fill:none;stroke:#35220B;stroke-width:5.26;stroke-linecap:round;stroke-linejoin:round;" d="M42.73,87.14
			c2.65,1.27,5.69,4.86,6.8,7.58c0.86,2.16,1.09,4.53,0.64,6.82"/>
		<path style="fill:none;stroke:#35220B;stroke-width:5.26;stroke-linecap:round;stroke-linejoin:round;" d="M84.5,86.41
			c-2.65,1.26-5.71,4.83-6.82,7.55c-0.56,1.36-0.86,2.82-0.89,4.29"/>
		<path style="fill:none;stroke:#35220B;stroke-width:5.26;stroke-linecap:round;stroke-linejoin:round;" d="M49.45,94.18
			c0,0,1.72-4.81,14.19-5c11.31-0.18,14,3.45,14,3.45"/>
	</g>
	<g id="eyebrows">
		<path style="fill:#422B0D;" d="M27.4,51.8c-2.2,0.4-2.3,3.6,0.1,3.7c5.3,0.07,10.42-1.9,14.3-5.5c1.48-1.28,2.73-2.8,3.7-4.5
			c0.58-0.83,0.38-1.97-0.45-2.55s-1.97-0.38-2.55,0.45l-0.1,0.1C38.48,47.88,33.19,50.81,27.4,51.8z"/>
		<path style="fill:#422B0D;" d="M84.5,36.4c-0.58-0.83-1.72-1.03-2.55-0.45c-0.83,0.58-1.03,1.72-0.45,2.55
			c0.97,1.7,2.22,3.22,3.7,4.5c3.9,3.57,9.01,5.54,14.3,5.5c2.5-0.1,2.3-3.3,0.1-3.7C93.74,43.84,88.41,40.87,84.5,36.4L84.5,36.4"
			/>
	</g>
	<g id="eyes">
		<g id="peepers">
			<path style="fill:#422B0D;" d="M37.75,62.65c-1.49,0.72-2.29,2.38-1.91,4c1,4.31,4.36,6.81,7.95,6.81c4.34,0,8.28-3.67,8.28-9.75
				c0.01-1.09-0.13-2.17-0.41-3.22c-0.54-1.85-2.47-2.91-4.31-2.37c-0.2,0.06-0.38,0.13-0.57,0.22L37.75,62.65z"/>
		</g>
	</g>
	<g id="peepers-2">
		<path style="fill:#896024;" d="M47.38,61.78L47.38,61.78c-0.55-0.83-1.94-1-3.41,0s-1.85,2.32-1.3,3.15l0,0
			c0.56,0.84,1.94,1,3.41,0S47.93,62.62,47.38,61.78z"/>
	</g>
	<g id="eyes-2">
		<g id="peepers-3">
			<path style="fill:#422B0D;" d="M89.84,62.65c1.5,0.72,2.3,2.38,1.92,4c-1.05,4.31-4.37,6.81-8,6.81c-4.34,0-8.29-3.67-8.29-9.75
				c0-1.09,0.13-2.17,0.41-3.22c0.54-1.85,2.48-2.91,4.33-2.37c0.19,0.06,0.38,0.13,0.56,0.22L89.84,62.65z"/>
		</g>
	</g>
	<g id="peepers-4">
		<path style="fill:#896024;" d="M80.21,61.78L80.21,61.78c0.56-0.83,2-1,3.42,0s1.85,2.32,1.29,3.15l0,0c-0.55,0.84-1.94,1-3.41,0
			S79.66,62.62,80.21,61.78z"/>
	</g>
</g>
</svg>
